plasma/desktoptheme/Arc-Color/icons/slc.svg

<svg xmlns="http://www.w3.org/2000/svg" width="32" height="32" version="1.1">
 <defs>
  <style id="current-color-scheme" type="text/css">
   .ColorScheme-Background {color:#2f343f; } .ColorScheme-ButtonBackground { color:#444a58; } .ColorScheme-Highlight { color:#5c87cc; } .ColorScheme-Text { color:#d3dae3; } .ColorScheme-NegativeText { color:#f44336; } .ColorScheme-PositiveText { color:#4caf50; } .ColorScheme-NeutralText { color:#ff9800; }
  </style>
 </defs>
 <g id="22-22-slc-like" transform="translate(31,-23)">
  <rect style="opacity:0.001" width="22" height="22" x="1" y="1"/>
  <path style="fill:currentColor" class="ColorScheme-Text" d="M 8,4 C 5.2385763,4 3,6.2385763 3,9 c 0,5 7,9 9,11 2,-2 9,-6 9,-11 C 21,6.2385763 18.761424,4 16,4 14.360405,4 12.911811,4.7807653 12,6 11.088189,4.7807653 9.6395954,4 8,4 Z"/>
 </g>
 <g id="22-22-slc-share" transform="translate(-1.0000005,-23)">
  <rect style="opacity:0.001" width="22" height="22" x="1" y="1"/>
  <path style="fill:currentColor" class="ColorScheme-Text" d="m 18,4 c -1.656854,0 -3,1.3431458 -3,3 0,0.087382 0.02393,0.1645141 0.03125,0.25 l -6.75,2.8125 C 7.730971,9.4152177 6.9161429,9 6,9 4.3431458,9 3,10.343146 3,12 c 0,1.656854 1.3431458,3 3,3 0.9161429,0 1.730971,-0.415218 2.28125,-1.0625 l 6.75,2.8125 C 15.023929,16.835486 15,16.912618 15,17 c 0,1.656854 1.343146,3 3,3 1.656854,0 3,-1.343146 3,-3 0,-1.656854 -1.343146,-3 -3,-3 -0.916143,0 -1.730971,0.415218 -2.28125,1.0625 L 8.96875,12.25 C 8.9760708,12.164514 9,12.087382 9,12 9,11.912618 8.9760708,11.835486 8.96875,11.75 l 6.75,-2.8125 C 16.269029,9.5847823 17.083857,10 18,10 19.656854,10 21,8.6568542 21,7 21,5.3431458 19.656854,4 18,4 Z m 0,2 c 0.552285,0 1,0.4477153 1,1 0,0.5522847 -0.447715,1 -1,1 C 17.447715,8 17,7.5522847 17,7 17,6.4477153 17.447715,6 18,6 Z M 6,11 c 0.5522847,0 1,0.447715 1,1 0,0.552285 -0.4477153,1 -1,1 -0.5522847,0 -1,-0.447715 -1,-1 0,-0.552285 0.4477153,-1 1,-1 z m 12,5 c 0.552285,0 1,0.447715 1,1 0,0.552285 -0.447715,1 -1,1 -0.552285,0 -1,-0.447715 -1,-1 0,-0.552285 0.447715,-1 1,-1 z"/>
 </g>
 <g id="22-22-slc-connect" transform="translate(63,-23)">
  <rect style="opacity:0.001" width="22" height="22" x="1" y="1"/>
  <path style="fill:currentColor" class="ColorScheme-Text" d="M 14,4 C 13.221497,4.7785032 13.063294,6.1686877 13.96875,7.6875 L 9.7187499,10.53125 C 9.1903432,10.318042 8.6231562,10.159067 8.0624999,10.15625 7.3337401,10.15255 6.6249999,10.375 5.9999999,11 l 3,3 -4,4 -1,2 2,-1 4,-4 L 13,18 c 1.106964,-1.106964 0.964749,-2.507767 0.46875,-3.71875 l 2.84375,-4.25 C 17.831312,10.936706 19.221497,10.778503 20,10 Z"/>
 </g>
 <g id="slc-share">
  <rect style="opacity:0.001" width="32" height="32" x="0" y="0"/>
  <path style="fill:currentColor" class="ColorScheme-Text" d="M 24.5,4 A 4.5,4.5 0 0 0 20,8.5 4.5,4.5 0 0 0 20.011719,8.7265625 L 10.845703,12.5 A 4.5,4.5 0 0 0 7.5,11 4.5,4.5 0 0 0 3,15.5 4.5,4.5 0 0 0 7.5,20 4.5,4.5 0 0 0 10.699219,18.662109 l 9.328125,4.390625 A 4.5,4.5 0 0 0 20,23.5 4.5,4.5 0 0 0 24.5,28 4.5,4.5 0 0 0 29,23.5 4.5,4.5 0 0 0 24.5,19 4.5,4.5 0 0 0 21.300781,20.337891 L 11.972656,15.947266 A 4.5,4.5 0 0 0 12,15.5 4.5,4.5 0 0 0 11.988281,15.273438 L 21.152344,11.5 A 4.5,4.5 0 0 0 24.5,13 4.5,4.5 0 0 0 29,8.5 4.5,4.5 0 0 0 24.5,4 Z m 0,3 A 1.5,1.5 0 0 1 26,8.5 1.5,1.5 0 0 1 24.5,10 1.5,1.5 0 0 1 23,8.5 1.5,1.5 0 0 1 24.5,7 Z m -17,7 A 1.5,1.5 0 0 1 9,15.5 1.5,1.5 0 0 1 7.5,17 1.5,1.5 0 0 1 6,15.5 1.5,1.5 0 0 1 7.5,14 Z m 17,8 A 1.5,1.5 0 0 1 26,23.5 1.5,1.5 0 0 1 24.5,25 1.5,1.5 0 0 1 23,23.5 1.5,1.5 0 0 1 24.5,22 Z"/>
 </g>
 <g id="slc-like" transform="translate(32)">
  <rect style="opacity:0.001" width="32" height="32" x="0" y="0"/>
  <path style="fill:currentColor" class="ColorScheme-Text" d="M 9.5000003,4 C 5.3578645,4 2,7.3578645 2,11.500001 2,19 12.5,25 15.5,28 18.5,25 29,19 29,11.500001 29,7.3578645 25.642136,4 21.5,4 19.040607,4 16.867716,5.171148 15.5,7 14.132283,5.171148 11.959392,4 9.5000003,4 Z"/>
 </g>
 <g id="slc-connect" transform="translate(64)">
  <rect style="opacity:0.001" width="32" height="32" x="0" y="0"/>
  <path style="fill:currentColor" class="ColorScheme-Text" d="m 19.000005,4 c -1.167754,1.1677548 -1.405058,3.2530315 -0.04688,5.53125 l -6.174562,4.065438 c -0.792611,-0.319811 -1.643391,-0.558275 -2.484375,-0.5625 -1.0931404,-0.0056 -2.1562509,0.328125 -3.0937508,1.265625 l 4.4999998,4.5 L 5.5000004,25 l -1.5,3 3,-1.500001 6.2004376,-6.200186 4.5,4.5 c 1.660446,-1.660446 1.447124,-3.761651 0.703125,-5.578125 l 4.065186,-6.174812 C 24.746968,14.405059 26.832245,14.167755 28,12.999996 Z"/>
 </g>
</svg>

<?xml version="1.0" encoding="UTF-8"?>
<svg width="32" height="32" version="1.1" xmlns="http://www.w3.org/2000/svg">
 <defs>
  <style id="current-color-scheme" type="text/css">.ColorScheme-Background {color:#2f343f; } .ColorScheme-ButtonBackground { color:#444a58; } .ColorScheme-Highlight { color:#5c87cc; } .ColorScheme-Text { color:#d3dae3; } .ColorScheme-NegativeText { color:#f44336; } .ColorScheme-PositiveText { color:#4caf50; } .ColorScheme-NeutralText { color:#ff9800; }</style>
 </defs>
 <g id="22-22-slc-like" transform="translate(31,-23)">
  <rect x="1" y="1" width="22" height="22" opacity=".001"/>
  <path class="ColorScheme-Text" d="m8 4c-2.7614 0-5 2.2386-5 5 0 5 7 9 9 11 2-2 9-6 9-11 0-2.7614-2.2386-5-5-5-1.6396 0-3.0882 0.78077-4 2-0.91181-1.2192-2.3604-2-4-2z" fill="currentColor"/>
 </g>
 <g id="22-22-slc-share" transform="translate(-1 -23)">
  <rect x="1" y="1" width="22" height="22" opacity=".001"/>
  <path class="ColorScheme-Text" d="m18 4c-1.6569 0-3 1.3431-3 3 0 0.087382 0.02393 0.16451 0.03125 0.25l-6.75 2.8125c-0.55028-0.64728-1.3651-1.0625-2.2812-1.0625-1.6569 0-3 1.3431-3 3s1.3431 3 3 3c0.91614 0 1.731-0.41522 2.2812-1.0625l6.75 2.8125c-0.007321 0.085486-0.03125 0.16262-0.03125 0.25 0 1.6569 1.3431 3 3 3s3-1.3431 3-3-1.3431-3-3-3c-0.91614 0-1.731 0.41522-2.2812 1.0625l-6.75-2.8125c0.0073208-0.085486 0.03125-0.16262 0.03125-0.25s-0.023929-0.16451-0.03125-0.25l6.75-2.8125c0.55028 0.64728 1.3651 1.0625 2.2812 1.0625 1.6569 0 3-1.3431 3-3s-1.3431-3-3-3zm0 2c0.55228 0 1 0.44772 1 1s-0.44772 1-1 1-1-0.44772-1-1 0.44772-1 1-1zm-12 5c0.55228 0 1 0.44772 1 1s-0.44772 1-1 1-1-0.44772-1-1 0.44772-1 1-1zm12 5c0.55228 0 1 0.44772 1 1s-0.44772 1-1 1-1-0.44772-1-1 0.44772-1 1-1z" fill="currentColor"/>
 </g>
 <g id="22-22-slc-connect" transform="translate(63,-23)">
  <rect x="1" y="1" width="22" height="22" opacity=".001"/>
  <path class="ColorScheme-Text" d="m14 4c-0.7785 0.7785-0.93671 2.1687-0.03125 3.6875l-4.25 2.8438c-0.52841-0.21321-1.0956-0.37218-1.6562-0.375-0.72876-0.0037-1.4375 0.21875-2.0625 0.84375l3 3-4 4-1 2 2-1 4-4 3 3c1.107-1.107 0.96475-2.5078 0.46875-3.7188l2.8438-4.25c1.5188 0.90546 2.909 0.74725 3.6875-0.03125z" fill="currentColor"/>
 </g>
 <g id="slc-share">
  <rect width="32" height="32" opacity=".001"/>
  <path class="ColorScheme-Text" d="m24.5 4a4.5 4.5 0 0 0-4.5 4.5 4.5 4.5 0 0 0 0.011719 0.22656l-9.166 3.7734a4.5 4.5 0 0 0-3.3457-1.5 4.5 4.5 0 0 0-4.5 4.5 4.5 4.5 0 0 0 4.5 4.5 4.5 4.5 0 0 0 3.1992-1.3379l9.3281 4.3906a4.5 4.5 0 0 0-0.027344 0.44727 4.5 4.5 0 0 0 4.5 4.5 4.5 4.5 0 0 0 4.5-4.5 4.5 4.5 0 0 0-4.5-4.5 4.5 4.5 0 0 0-3.1992 1.3379l-9.3281-4.3906a4.5 4.5 0 0 0 0.027344-0.44727 4.5 4.5 0 0 0-0.011719-0.22656l9.1641-3.7734a4.5 4.5 0 0 0 3.3477 1.5 4.5 4.5 0 0 0 4.5-4.5 4.5 4.5 0 0 0-4.5-4.5zm0 3a1.5 1.5 0 0 1 1.5 1.5 1.5 1.5 0 0 1-1.5 1.5 1.5 1.5 0 0 1-1.5-1.5 1.5 1.5 0 0 1 1.5-1.5zm-17 7a1.5 1.5 0 0 1 1.5 1.5 1.5 1.5 0 0 1-1.5 1.5 1.5 1.5 0 0 1-1.5-1.5 1.5 1.5 0 0 1 1.5-1.5zm17 8a1.5 1.5 0 0 1 1.5 1.5 1.5 1.5 0 0 1-1.5 1.5 1.5 1.5 0 0 1-1.5-1.5 1.5 1.5 0 0 1 1.5-1.5z" fill="currentColor"/>
 </g>
 <g id="slc-like" transform="translate(32)">
  <rect width="32" height="32" opacity=".001"/>
  <path class="ColorScheme-Text" d="m9.5 4c-4.1421 0-7.5 3.3579-7.5 7.5 0 7.5 10.5 13.5 13.5 16.5 3-3 13.5-9 13.5-16.5 0-4.1421-3.3579-7.5-7.5-7.5-2.4594 0-4.6323 1.1711-6 3-1.3677-1.8289-3.5406-3-6-3z" fill="currentColor"/>
 </g>
 <g id="slc-connect" transform="translate(64)">
  <rect width="32" height="32" opacity=".001"/>
  <path class="ColorScheme-Text" d="m19 4c-1.1678 1.1678-1.4051 3.253-0.04688 5.5312l-6.1746 4.0654c-0.79261-0.31981-1.6434-0.55828-2.4844-0.5625-1.0931-0.0056-2.1563 0.32812-3.0938 1.2656l4.5 4.5-6.2004 6.2002-1.5 3 3-1.5 6.2004-6.2002 4.5 4.5c1.6604-1.6604 1.4471-3.7617 0.70312-5.5781l4.0652-6.1748c2.2782 1.3582 4.3635 1.1209 5.5313-0.04688z" fill="currentColor"/>
 </g>
</svg>
